flaticon/hand-gestures/tablet.svg

<svg xmlns="http://www.w3.org/2000/svg" width="32" height="32" viewBox="0 0 24 24">
    <path d="M 22.839844 0.800781 L 1.160156 0.800781 C 0.519531 0.800781 0 1.320312 0 1.960938 L 0 17.238281 C 0 17.878906 0.519531 18.398438 1.160156 18.398438 L 12.800781 18.398438 L 12.800781 22.800781 C 12.800781 23.039062 12.960938 23.199219 13.199219 23.199219 C 13.441406 23.199219 13.601562 23.039062 13.601562 22.800781 L 13.601562 14.367188 C 13.605469 14.324219 13.605469 14.277344 13.601562 14.234375 L 13.601562 12.800781 C 13.601562 12.359375 13.761719 11.960938 14 11.601562 L 14 14 L 17.199219 14 L 17.199219 11.601562 C 17.441406 11.960938 17.601562 12.359375 17.601562 12.800781 L 17.601562 22.800781 C 17.601562 23.039062 17.761719 23.199219 18 23.199219 C 18.238281 23.199219 18.398438 23.039062 18.398438 22.800781 L 18.398438 18.398438 L 22.839844 18.398438 C 23.480469 18.398438 24 17.878906 24 17.238281 L 24 1.960938 C 24 1.320312 23.480469 0.800781 22.839844 0.800781 Z M 18.398438 14.480469 C 18.53125 14.347656 18.660156 14.214844 18.761719 14.078125 C 18.878906 13.921875 18.839844 13.640625 18.679688 13.519531 C 18.605469 13.460938 18.5 13.441406 18.398438 13.453125 L 18.398438 12.800781 C 18.398438 11.863281 17.945312 10.960938 17.164062 10.457031 C 17.003906 9.738281 16.363281 9.199219 15.601562 9.199219 C 14.835938 9.199219 14.191406 9.746094 14.035156 10.464844 C 13.253906 10.996094 12.800781 11.863281 12.800781 12.800781 L 12.800781 13.4375 C 12.710938 13.441406 12.625 13.46875 12.558594 13.519531 C 12.359375 13.640625 12.359375 13.921875 12.480469 14.078125 C 12.570312 14.199219 12.683594 14.320312 12.800781 14.4375 L 12.800781 16 L 2.398438 16 L 2.398438 3.199219 L 20.800781 3.199219 L 20.800781 16 L 18.398438 16 Z M 16.398438 13.160156 L 14.800781 13.160156 L 14.800781 10.800781 L 14.8125 10.65625 C 14.882812 10.285156 15.207031 10 15.601562 10 C 16.011719 10 16.351562 10.3125 16.394531 10.714844 L 16.394531 10.722656 C 16.398438 10.75 16.398438 10.773438 16.398438 10.800781 Z M 23.199219 17.238281 C 23.199219 17.441406 23.039062 17.601562 22.839844 17.601562 L 18.398438 17.601562 L 18.398438 16.800781 L 21.601562 16.800781 L 21.601562 2.398438 L 1.601562 2.398438 L 1.601562 16.800781 L 12.800781 16.800781 L 12.800781 17.601562 L 1.160156 17.601562 C 0.960938 17.601562 0.800781 17.441406 0.800781 17.238281 L 0.800781 1.960938 C 0.800781 1.761719 0.960938 1.601562 1.160156 1.601562 L 22.839844 1.601562 C 23.039062 1.601562 23.199219 1.761719 23.199219 1.960938 Z M 23.199219 17.238281"/>
    <path d="M16 20.398438C16.238281 20.398438 16.398438 20.238281 16.398438 20 16.398438 19.761719 16.238281 19.601562 16 19.601562L15.199219 19.601562C14.960938 19.601562 14.800781 19.761719 14.800781 20 14.800781 20.238281 14.960938 20.398438 15.199219 20.398438zM16.398438 21.199219L14.800781 21.199219C14.558594 21.199219 14.398438 21.359375 14.398438 21.601562 14.398438 21.839844 14.558594 22 14.800781 22L16.398438 22C16.640625 22 16.800781 21.839844 16.800781 21.601562 16.800781 21.359375 16.640625 21.199219 16.398438 21.199219zM12.558594 9C12.238281 9.320312 12 9.71875 11.839844 10.160156 11.761719 10.359375 11.878906 10.601562 12.078125 10.679688 12.160156 10.71875 12.199219 10.71875 12.238281 10.71875 12.398438 10.71875 12.558594 10.601562 12.601562 10.480469 12.71875 10.121094 12.921875 9.800781 13.160156 9.519531 13.320312 9.359375 13.28125 9.121094 13.121094 8.960938 12.960938 8.800781 12.71875 8.839844 12.558594 9zM12.441406 11.601562L12.441406 11.519531C12.441406 11.320312 12.28125 11.121094 12.039062 11.121094 11.839844 11.121094 11.640625 11.320312 11.640625 11.519531L11.640625 11.601562C11.640625 12.039062 11.679688 12.480469 11.839844 12.878906 11.878906 13.039062 12.039062 13.160156 12.199219 13.160156 12.238281 13.160156 12.28125 13.160156 12.359375 13.121094 12.558594 13.039062 12.679688 12.800781 12.601562 12.601562 12.480469 12.28125 12.441406 11.960938 12.441406 11.601562zM14.921875 7.640625C14.480469 7.71875 14.039062 7.878906 13.640625 8.121094 13.441406 8.238281 13.359375 8.480469 13.480469 8.679688 13.558594 8.800781 13.71875 8.878906 13.839844 8.878906 13.878906 8.878906 13.960938 8.839844 14.039062 8.800781 14.359375 8.640625 14.71875 8.519531 15.078125 8.441406 15.28125 8.398438 15.441406 8.160156 15.398438 7.960938 15.359375 7.761719 15.160156 7.601562 14.921875 7.640625zM18.960938 10.71875C19 10.71875 19.078125 10.71875 19.121094 10.71875 19.320312 10.640625 19.441406 10.398438 19.359375 10.199219 19.160156 9.761719 18.960938 9.359375 18.640625 9 18.480469 8.839844 18.238281 8.800781 18.078125 8.960938 17.921875 9.078125 17.878906 9.359375 18.039062 9.519531 18.28125 9.800781 18.480469 10.121094 18.601562 10.480469 18.640625 10.640625 18.800781 10.71875 18.960938 10.71875zM17.601562 8.160156C17.199219 7.921875 16.761719 7.761719 16.320312 7.679688 16.078125 7.640625 15.878906 7.800781 15.839844 8 15.800781 8.238281 15.960938 8.441406 16.160156 8.480469 16.519531 8.519531 16.878906 8.640625 17.199219 8.839844 17.28125 8.878906 17.320312 8.878906 17.398438 8.878906 17.519531 8.878906 17.640625 8.800781 17.761719 8.71875 17.839844 8.519531 17.800781 8.28125 17.601562 8.160156zM19.199219 11.121094C18.960938 11.121094 18.800781 11.28125 18.800781 11.519531L18.800781 11.558594C18.800781 11.921875 18.761719 12.28125 18.640625 12.601562 18.558594 12.839844 18.679688 13.039062 18.878906 13.121094 18.921875 13.160156 18.960938 13.160156 19 13.160156 19.160156 13.160156 19.320312 13.039062 19.398438 12.878906 19.519531 12.480469 19.601562 12.039062 19.601562 11.601562L19.601562 11.519531C19.601562 11.28125 19.441406 11.121094 19.199219 11.121094zM3.601562 6.398438C3.71875 6.398438 3.800781 6.359375 3.878906 6.28125L5.480469 4.679688C5.640625 4.519531 5.640625 4.28125 5.480469 4.121094 5.320312 3.960938 5.078125 3.960938 4.921875 4.121094L3.320312 5.71875C3.160156 5.878906 3.160156 6.121094 3.320312 6.28125 3.398438 6.359375 3.480469 6.398438 3.601562 6.398438zM3.601562 8.398438C3.71875 8.398438 3.800781 8.359375 3.878906 8.28125L4.679688 7.480469C4.839844 7.320312 4.839844 7.078125 4.679688 6.921875 4.519531 6.761719 4.28125 6.761719 4.121094 6.921875L3.320312 7.71875C3.160156 7.878906 3.160156 8.121094 3.320312 8.28125 3.398438 8.359375 3.480469 8.398438 3.601562 8.398438zM6.921875 4.121094L5.71875 5.320312C5.558594 5.480469 5.558594 5.71875 5.71875 5.878906 5.800781 5.960938 5.878906 6 6 6 6.121094 6 6.199219 5.960938 6.28125 5.878906L7.480469 4.679688C7.640625 4.519531 7.640625 4.28125 7.480469 4.121094 7.320312 3.960938 7.078125 3.960938 6.921875 4.121094zM6.921875 6.121094L3.320312 9.71875C3.160156 9.878906 3.160156 10.121094 3.320312 10.28125 3.398438 10.359375 3.480469 10.398438 3.601562 10.398438 3.71875 10.398438 3.800781 10.359375 3.878906 10.28125L7.480469 6.679688C7.640625 6.519531 7.640625 6.28125 7.480469 6.121094 7.320312 5.960938 7.078125 5.960938 6.921875 6.121094zM8.921875 4.121094L8.519531 4.519531C8.359375 4.679688 8.359375 4.921875 8.519531 5.078125 8.601562 5.160156 8.679688 5.199219 8.800781 5.199219 8.921875 5.199219 9 5.160156 9.078125 5.078125L9.480469 4.679688C9.640625 4.519531 9.640625 4.28125 9.480469 4.121094 9.320312 3.960938 9.078125 3.960938 8.921875 4.121094zM8.921875 4.121094"/>
</svg>

<svg xmlns="http://www.w3.org/2000/svg" width="32" height="32" viewBox="0 0 24 24">
    <path d="M22.84.8H1.16C.52.8 0 1.32 0 1.96v15.278c0 .64.52 1.16 1.16 1.16H12.8v4.403c0 .238.16.398.4.398.241 0 .402-.16.402-.398v-8.434a.754.754 0 0 0 0-.133v-1.433c0-.442.16-.84.398-1.2V14h3.2v-2.398c.241.359.402.757.402 1.199v10c0 .238.16.398.398.398.238 0 .398-.16.398-.398v-4.403h4.442c.64 0 1.16-.52 1.16-1.16V1.961C24 1.32 23.48.8 22.84.8zm-4.442 13.68c.133-.132.262-.265.364-.402.117-.156.078-.437-.082-.558a.386.386 0 0 0-.282-.067v-.652c0-.938-.453-1.84-1.234-2.344a1.607 1.607 0 0 0-1.562-1.258c-.766 0-1.41.547-1.567 1.266a2.808 2.808 0 0 0-1.234 2.336v.636a.43.43 0 0 0-.242.083c-.2.12-.2.402-.079.558.09.121.204.242.32.36V16H2.399V3.2h18.403V16h-2.403zm-2-1.32h-1.597V10.8l.011-.144a.8.8 0 0 1 1.582.059v.008c.004.027.004.05.004.078zm6.801 4.078a.36.36 0 0 1-.36.364H18.4V16.8h3.203V2.398h-20v14.403H12.8v.8H1.16a.36.36 0 0 1-.36-.363V1.961c0-.2.16-.36.36-.36H22.84c.2 0 .36.16.36.36zm0 0"/>
    <path d="M16 20.398c.238 0 .398-.16.398-.398 0-.238-.16-.398-.398-.398h-.8c-.24 0-.4.16-.4.398 0 .238.16.398.4.398zm0 0M16.398 21.2h-1.597c-.242 0-.403.16-.403.402 0 .238.16.398.403.398h1.597c.243 0 .403-.16.403-.398 0-.243-.16-.403-.403-.403zm0 0M12.559 9c-.32.32-.559.719-.72 1.16-.077.2.04.442.24.52.081.039.12.039.16.039.16 0 .32-.117.363-.239.117-.359.32-.68.558-.96.16-.16.121-.399-.039-.56-.16-.16-.402-.12-.562.04zm0 0M12.441 11.602v-.082a.4.4 0 0 0-.402-.399c-.2 0-.398.2-.398.399v.082c0 .437.039.878.199 1.277.039.16.2.281.36.281.038 0 .081 0 .16-.039.199-.082.32-.32.242-.52-.122-.32-.16-.64-.16-1zm0 0M14.922 7.64a3.731 3.731 0 0 0-1.281.481c-.2.117-.282.36-.16.559.078.12.238.199.359.199.039 0 .12-.04.2-.078.32-.16.679-.281 1.038-.36.203-.043.363-.28.32-.48a.413.413 0 0 0-.476-.32zm0 0M18.96 10.719h.161c.2-.078.32-.32.238-.52-.199-.437-.398-.84-.718-1.199-.16-.16-.403-.2-.563-.04-.156.118-.2.4-.039.56.242.28.441.601.563.96.039.16.199.239.359.239zm0 0M17.602 8.16a3.93 3.93 0 0 0-1.282-.48.415.415 0 0 0-.48.32.417.417 0 0 0 .32.48c.36.04.719.16 1.04.36.081.039.12.039.198.039.122 0 .243-.078.364-.16.078-.2.039-.438-.16-.559zm0 0M19.2 11.121c-.24 0-.4.16-.4.399v.039c0 .363-.038.722-.16 1.043-.081.238.04.437.239.52.043.038.082.038.121.038.16 0 .32-.12.398-.281.122-.399.204-.84.204-1.277v-.082c0-.239-.16-.399-.403-.399zm0 0M3.602 6.398c.117 0 .199-.039.277-.117L5.48 4.68a.385.385 0 0 0 0-.559.385.385 0 0 0-.558 0L3.32 5.72a.39.39 0 0 0 0 .562c.078.078.16.117.282.117zm0 0M3.602 8.398c.117 0 .199-.039.277-.117l.8-.8a.385.385 0 0 0 0-.56.385.385 0 0 0-.558 0l-.8.798a.39.39 0 0 0 0 .562c.077.078.16.117.28.117zm0 0M6.922 4.121l-1.203 1.2a.385.385 0 0 0 0 .558C5.8 5.96 5.879 6 6 6c.121 0 .2-.04.281-.121l1.2-1.2a.385.385 0 0 0 0-.558.385.385 0 0 0-.56 0zm0 0M6.922 6.121L3.32 9.72a.39.39 0 0 0 0 .562c.078.078.16.117.282.117.117 0 .199-.039.277-.117L7.48 6.68a.385.385 0 0 0 0-.559.385.385 0 0 0-.558 0zm0 0M8.922 4.121l-.402.399a.385.385 0 0 0 0 .558c.082.082.16.121.28.121.122 0 .2-.039.278-.12l.402-.4a.385.385 0 0 0 0-.558.385.385 0 0 0-.558 0zm0 0"/>
</svg>
